public/avatar/item1/39.svg

<svg xmlns:xlink="http://www.w3.org/1999/xlink" height="65.4" width="80.15" xmlns="http://www.w3.org/2000/svg"><use height="25.6" transform="translate(7 34.05)" width="73.15" xlink:href="#a"/><defs><g id="a" fill-rule="evenodd"><path d="M36.35 29.25v-.05q-2.3.6-7.75-1l-31.95 7.5q6.75 3.05 7.05 4.2l.05.05-.15.7v.05l-15.3.45q-7.95 4.9-9.25 4.7-1.65-.4-.2-8.8-3.75-5.1-3.45-6.35l.3-.55q1-.75 9.3 1.55 8.8-6.2 10.2-5.6.95.45.5 2.15l-1.45 3.9 32.6-8.25 4.35-3.65.55.35 5.25 2q6.15 1.4 11.55-.75l-12.2 7.4" fill="#1b191e" transform="translate(24.6 -20.25)"/><path d="m-20.5 36.7-1.95-2.8q-1.85-2.9-1.5-3.2.4-.35 4.7.7l4.2 1.1 4.45-3q4.6-3 5.15-2.7.95.4-2.55 7.75 11.25 4.7 10.65 5.6-.65.9-14.75.05-7.95 4.9-8.9 4.75-.95-.2.5-8.25" transform="translate(24.6 -20.25)"/><path d="M-22.4 33.8q-1.9-2.9-1.55-3.2.4-.3 4.7.7l4.2 1.1 4.45-3q4.6-3 5.2-2.7.95.4-2.6 7.75l7.55 3.45-4.8-1.35q-6.95-1.85-9.9-.95-2.95.9-4.9 4.45l-1.2 2.3.8-5.7-1.95-2.85" fill="#5c5c5c" transform="translate(24.6 -20.25)"/><path d="m-5.75 27.25-.05.4q-.4 1.7-2.6 6.55l-.25.5.5.25 4.4 1.7-5.7-1.7q.65-3.3.1-3.45-1.1-.25-3 1.1L-15 34.35q-2.45.75-6.2-1.85l1.3 3.75q-2.65-3.6-3.35-5.2 1.75.1 8.15 1.8l.25.1.2-.15q6.8-4.8 8.9-5.55" fill="#e5e5e5" transform="translate(24.6 -20.25)"/><path d="m28.85 27.25-43.1 10.15-.65-2.35 41.95-10.5 3.85-3.25 4.35 1.85q5.3 1.55 10.25-.1-3.8 2.55-7.05 4.1l-2.55 1.1q-4.8 0-7.05-1" fill="#696969" transform="translate(24.6 -20.25)"/><path d="M35.95 27.95q3.6-2.3 1.4-3.3L31.1 22.7l-3.2 2.8-42.2 10.65-.25-.9L27.2 24.8l3.7-3.15q6.05 3.55 12.9 2.15l-7.85 4.15" fill="#86888b" transform="translate(24.6 -20.25)"/><path d="m-15.6 39.05-.5.15-1.05-4.85.5-.1 1.05 4.8" fill="#1b191e" transform="translate(24.6 -20.25)"/><path d="m-20.15 38 .25.55-1.05 2.9.8-3.45" fill="#e5e5e5" transform="translate(24.6 -20.25)"/><path d="m-20.7 44.4 8.45-5.2 13.9.6q-9.4.35-13.8-.1l-8.55 4.7" fill="#696969" transform="translate(24.6 -20.25)"/><path d="M34 23.65q0 .6-.6.6t-.6-.6q0-.6.6-.6t.6.6m1.3.35q0 .6-.65.6-.6 0-.6-.6t.6-.6q.65 0 .65.6m1.25.25q0 .6-.6.6t-.6-.6q0-.6.6-.6t.6.6m1.5.25q0 .6-.6.6t-.6-.6q0-.6.6-.6t.6.6" fill="#1b191e" transform="translate(24.6 -20.25)"/></g></defs></svg>

<?xml version="1.0" encoding="UTF-8" standalone="no"?>
<svg xmlns:xlink="http://www.w3.org/1999/xlink" height="65.4px" width="80.15px" xmlns="http://www.w3.org/2000/svg">
  <g transform="matrix(1.0, 0.0, 0.0, 1.0, 31.6, 13.8)">
    <use height="25.6" transform="matrix(1.0, 0.0, 0.0, 1.0, -24.6, 20.25)" width="73.15" xlink:href="#shape0"/>
  </g>
  <defs>
    <g id="shape0" transform="matrix(1.0, 0.0, 0.0, 1.0, 24.6, -20.25)">
      <path d="M36.35 29.25 L36.35 29.2 Q34.05 29.8 28.6 28.2 L-3.35 35.7 Q3.4 38.75 3.7 39.9 L3.75 39.95 3.6 40.65 3.6 40.7 -11.7 41.15 Q-19.65 46.05 -20.95 45.85 -22.6 45.45 -21.15 37.05 -24.9 31.95 -24.6 30.7 L-24.3 30.15 Q-23.3 29.4 -15.0 31.7 -6.2 25.5 -4.8 26.1 -3.85 26.55 -4.3 28.25 L-5.75 32.15 26.85 23.9 31.2 20.25 31.75 20.6 37.0 22.6 Q43.15 24.0 48.55 21.85 L36.35 29.25" fill="#1b191e" fill-rule="evenodd" stroke="none"/>
      <path d="M-20.5 36.7 L-22.45 33.9 Q-24.3 31.0 -23.95 30.7 -23.55 30.35 -19.25 31.4 L-15.05 32.5 -10.6 29.5 Q-6.0 26.5 -5.45 26.8 -4.5 27.2 -8.0 34.55 3.25 39.25 2.65 40.15 2.0 41.05 -12.1 40.2 -20.05 45.1 -21.0 44.95 -21.95 44.75 -20.5 36.7" fill="#000000" fill-rule="evenodd" stroke="none"/>
      <path d="M-22.4 33.8 Q-24.3 30.9 -23.95 30.6 -23.55 30.3 -19.25 31.3 L-15.05 32.4 -10.6 29.4 Q-6.0 26.4 -5.4 26.7 -4.45 27.1 -8.0 34.45 L-0.45 37.9 -5.25 36.55 Q-12.2 34.7 -15.15 35.6 -18.1 36.5 -20.05 40.05 L-21.25 42.35 -20.45 36.65 -22.4 33.8" fill="#5c5c5c" fill-rule="evenodd" stroke="none"/>
      <path d="M-5.75 27.25 L-5.8 27.65 Q-6.2 29.35 -8.4 34.2 L-8.65 34.7 -8.15 34.95 -3.75 36.65 -9.45 34.95 Q-8.8 31.65 -9.35 31.5 -10.45 31.25 -12.35 32.6 L-15.0 34.35 Q-17.45 35.1 -21.2 32.5 L-19.9 36.25 Q-22.55 32.65 -23.25 31.05 -21.5 31.15 -15.1 32.85 L-14.85 32.95 -14.65 32.8 Q-7.85 28.0 -5.75 27.25" fill="#e5e5e5" fill-rule="evenodd" stroke="none"/>
      <path d="M28.85 27.25 L-14.25 37.4 -14.9 35.05 27.05 24.55 30.9 21.3 35.25 23.15 Q40.55 24.7 45.5 23.05 41.7 25.6 38.45 27.15 L35.9 28.25 Q31.1 28.25 28.85 27.25" fill="#696969" fill-rule="evenodd" stroke="none"/>
      <path d="M35.95 27.95 Q39.55 25.65 37.35 24.65 L31.1 22.7 27.9 25.5 -14.3 36.15 -14.55 35.25 27.2 24.8 30.9 21.65 Q36.95 25.2 43.8 23.8 L35.95 27.95" fill="#86888b" fill-rule="evenodd" stroke="none"/>
      <path d="M-15.6 39.05 L-16.1 39.2 -17.15 34.35 -16.65 34.25 -15.6 39.05" fill="#1b191e" fill-rule="evenodd" stroke="none"/>
      <path d="M-20.15 38.0 L-19.9 38.55 -20.95 41.45 -20.15 38.0" fill="#e5e5e5" fill-rule="evenodd" stroke="none"/>
      <path d="M-20.7 44.4 L-12.25 39.2 1.65 39.8 Q-7.75 40.15 -12.15 39.7 L-20.7 44.4" fill="#696969" fill-rule="evenodd" stroke="none"/>
      <path d="M34.0 23.65 Q34.0 24.25 33.4 24.25 32.8 24.25 32.8 23.65 32.8 23.05 33.4 23.05 34.0 23.05 34.0 23.65" fill="#1b191e" fill-rule="evenodd" stroke="none"/>
      <path d="M35.3 24.0 Q35.3 24.6 34.65 24.6 34.05 24.6 34.05 24.0 34.05 23.4 34.65 23.4 35.3 23.4 35.3 24.0" fill="#1b191e" fill-rule="evenodd" stroke="none"/>
      <path d="M36.55 24.25 Q36.55 24.85 35.95 24.85 35.35 24.85 35.35 24.25 35.35 23.65 35.95 23.65 36.55 23.65 36.55 24.25" fill="#1b191e" fill-rule="evenodd" stroke="none"/>
      <path d="M38.05 24.5 Q38.05 25.1 37.45 25.1 36.85 25.1 36.85 24.5 36.85 23.9 37.45 23.9 38.05 23.9 38.05 24.5" fill="#1b191e" fill-rule="evenodd" stroke="none"/>
    </g>
  </defs>
</svg>
